img/agro-grey.svg

<svg width="93" height="93" viewBox="0 0 93 93" fill="none" xmlns="http://www.w3.org/2000/svg">
<path d="M93 87.1495V3.93899C93 -0.303111 92.3474 0.0232047 86.4737 0.0232047C85.5829 -0.0290058 70.853 0.0232047 69.9491 0.0232047C53.1862 0.0232047 40.2935 23.2308 39.0045 47.7273C37.7156 72.2238 61.9772 92.8535 69.9491 92.8535C70.853 92.8535 87.2144 92.7524 88.1053 92.6969C92.3474 92.6969 93 92.6969 93 87.1495Z" fill="#E3E3E3"/>
<path d="M11.6038 69.6459C12.2923 74.2339 13.9239 76.5279 15.4706 78.6718C16.3353 79.8694 17.9637 82.1242 20.6264 82.5387C24.0951 83.0803 26.9504 80.1272 28.3633 78.6718C31.7799 75.1411 34.3153 69.1825 32.2302 65.7791C31.8908 65.2211 31.5678 64.6957 30.9412 64.4901C28.1969 63.5928 24.6499 70.5531 21.9153 69.6459C21.4357 69.486 21.4226 69.2315 20.6264 68.357C18.2378 65.7366 14.2502 63.5275 12.8894 64.4901C12.2042 64.9763 11.1339 66.5394 11.6005 69.6459H11.6038Z" fill="#E3E3E3"/>
<path d="M13.1897 53.0072C13.7608 56.8186 15.115 58.721 16.4007 60.4994C17.1186 61.4947 18.4728 63.3645 20.6819 63.7104C23.5633 64.1607 25.9324 61.7101 27.1038 60.4994C29.9395 57.5691 32.0443 52.6189 30.3148 49.793C30.0309 49.3297 29.7633 48.8924 29.2445 48.7227C26.9668 47.9754 24.0202 53.7578 21.7523 53.004C21.3542 52.8702 21.3444 52.6613 20.6819 51.9337C18.6979 49.7571 15.3858 47.9232 14.2601 48.7227C13.6923 49.1241 12.8014 50.4228 13.1897 53.004V53.0072Z" fill="#E3E3E3"/>
<path d="M15.2096 36.5053C15.673 39.6053 16.776 41.1553 17.8234 42.6008C18.4075 43.4101 19.5072 44.934 21.3085 45.2146C23.6514 45.5801 25.58 43.5863 26.5328 42.6008C28.8399 40.2155 30.553 36.1887 29.1466 33.8915C28.9149 33.5162 28.6995 33.1573 28.2753 33.0202C26.4219 32.4133 24.0234 37.1155 22.1797 36.5053C21.8567 36.3976 21.8469 36.2246 21.3085 35.634C19.6965 33.8621 17.0011 32.3708 16.0842 33.0202C15.6208 33.3465 14.8996 34.4038 15.2129 36.5053H15.2096Z" fill="#E3E3E3"/>
<path d="M30.8923 0.339844C31.0261 12.5669 31.199 24.7939 31.2708 37.021C31.3034 42.5716 26.6632 45.205 23.2467 48.8108C24.131 48.9968 24.5879 49.2546 24.862 49.1241C26.859 48.1614 28.5591 45.2148 30.8955 46.7093C33.2809 48.2332 32.364 51.3952 32.2628 53.8981C32.0213 59.9284 27.28 62.9174 23.4262 66.2622C24.2974 67.8415 24.9631 67.0682 25.5733 66.6309C27.5932 65.1886 29.5903 62.2746 32.0474 63.5798C34.8015 65.0417 33.617 68.5888 33.5811 71.2678C33.5322 74.841 32.1486 78.0454 29.5642 80.4504C26.3532 83.4394 22.1862 85.7008 23.3511 91.2873C23.5078 92.0411 22.8878 92.9548 21.7946 92.8504C20.7373 92.7492 20.2968 91.7931 20.4469 91.0458C21.4911 85.7824 17.6537 83.6026 14.5765 80.7473C13.082 79.3605 11.9203 77.3569 11.1959 75.4088C9.8286 71.7214 8.79744 66.9507 11.3329 64.3108C14.3774 61.1423 16.7139 66.7712 20.2283 67.3782C20.1957 64.8688 18.0289 64.363 16.802 63.2796C14.3187 61.0901 12.3478 58.5872 11.8877 55.2621C11.4895 52.3611 10.4029 48.7455 13.0363 46.8203C15.4641 45.0451 17.2817 48.8108 19.6768 49.3264C19.8334 48.9544 20.15 48.3376 20.101 48.305C13.1374 43.7627 11.9725 37.0014 12.475 29.2579C13.0983 19.6414 11.8942 9.96942 13.0852 0.349633H15.6272C15.7055 8.91869 15.8132 17.4845 15.8426 26.0535C15.8524 29.1209 16.009 31.9305 20.7112 31.9501V0.339844H23.2532V32.2242C27.9228 31.2615 27.9326 28.7456 27.9522 26.0503C28.0174 17.4812 28.2002 8.91216 28.3372 0.339844H30.8792H30.8923ZM30.4942 65.9032C25.4395 67.7502 24.1604 72.1391 22.1274 76.1593C19.4168 71.0536 16.567 67.7926 13.578 66.3764C12.8764 73.7609 16.9162 81.1193 21.7979 81.3412C26.4544 81.5566 30.7944 74.2341 30.4942 65.9032ZM14.7625 49.2611C14.57 56.0974 17.918 61.9613 21.837 62.1082C26.0791 62.2648 29.5968 56.0778 29.0029 49.4536C24.7119 50.0997 24.3692 54.7334 21.713 57.2852C19.7845 54.0971 18.9687 50.5664 14.7625 49.2611ZM15.8361 33.8362C14.756 38.4013 16.6029 41.5144 20.2838 43.8932C22.7768 45.5052 24.2322 43.5767 25.7267 42.2323C28.3666 39.8567 28.954 37.0308 27.8902 33.5033C24.4247 35.1088 23.7199 37.9575 22.1666 40.2939C19.7649 38.0815 19.7062 34.2995 15.8361 33.8362Z" fill="#707070"/>
<path d="M66.4998 0.339844C56.1327 7.99848 47.4494 16.9199 43.3574 29.6136C36.4004 51.1896 43.4684 74.2863 61.4745 88.0959C62.7765 89.0945 64.0557 90.1289 65.5828 91.3363C61.1776 92.7753 58.7922 90.0016 56.3154 87.8479C31.2446 66.0403 31.1696 27.1565 56.1131 4.85279C57.8426 3.30605 59.6439 1.8409 61.4125 0.339844C63.1093 0.339844 64.8029 0.339844 66.4998 0.339844Z" fill="#707070"/>
<path d="M89.5508 12.4104C90.7451 12.4267 92.6671 11.8459 92.6932 13.4677C92.7389 16.4469 89.9555 15.3342 88.3793 15.5854C74.8079 17.7359 64.8063 27.2969 62.3067 40.6954C59.8952 53.611 65.8831 66.5853 77.2455 73.141C80.9752 75.2914 84.9889 76.4368 89.2376 77.0503C90.5983 77.2461 93.3818 76.4107 92.8499 79.1485C92.4061 81.4229 89.975 80.3918 88.5294 80.1601C75.082 78.0162 65.5144 70.6839 60.7893 57.8858C55.9338 44.7385 58.8608 32.8378 68.3109 22.6534C73.9888 16.535 81.1482 13.0859 89.5508 12.4071V12.4104Z" fill="#707070"/>
<path d="M92.5333 46.7453C92.5333 48.4356 92.6475 50.139 92.5071 51.8195C92.357 53.6012 93.4143 56.0192 91.5674 57.008C89.6551 58.0326 87.7234 56.574 86.082 55.3601C79.4839 50.4784 80.0615 40.3267 87.1817 36.4762C90.4416 34.7108 93.0097 34.4302 92.5659 39.772C92.3734 42.079 92.5333 44.422 92.5365 46.7486L92.5333 46.7453Z" fill="#707070"/>
</svg>

<svg width="93" height="93" fill="none" xmlns="http://www.w3.org/2000/svg"><path d="M93 87.15V3.939C93-.303 92.347.023 86.474.023c-.891-.052-15.621 0-16.525 0-16.763 0-29.655 23.208-30.944 47.704-1.29 24.497 22.972 45.127 30.944 45.127.904 0 17.265-.102 18.156-.157 4.242 0 4.895 0 4.895-5.547zM11.604 69.646c.688 4.588 2.32 6.882 3.867 9.026.864 1.197 2.493 3.452 5.155 3.867 3.47.541 6.324-2.412 7.737-3.867 3.417-3.53 5.952-9.49 3.867-12.893-.34-.558-.662-1.083-1.289-1.289-2.744-.897-6.291 6.063-9.026 5.156-.48-.16-.492-.415-1.289-1.289-2.388-2.62-6.376-4.83-7.737-3.867-.685.486-1.755 2.05-1.288 5.156h.003zm1.586-16.639c.57 3.812 1.925 5.714 3.21 7.492.719.996 2.073 2.865 4.282 3.211 2.881.45 5.25-2 6.422-3.21 2.835-2.93 4.94-7.881 3.21-10.707-.283-.463-.55-.9-1.07-1.07-2.277-.748-5.224 5.035-7.492 4.281-.398-.134-.408-.343-1.07-1.07-1.984-2.177-5.296-4.01-6.422-3.211-.568.401-1.459 1.7-1.07 4.281v.003zm2.02-16.502c.463 3.1 1.566 4.65 2.613 6.096.584.81 1.684 2.333 3.485 2.614 2.343.365 4.272-1.629 5.225-2.614 2.307-2.386 4.02-6.412 2.614-8.71-.232-.375-.447-.734-.872-.87-1.853-.608-4.252 4.094-6.095 3.484-.323-.107-.333-.28-.872-.871-1.611-1.772-4.307-3.263-5.224-2.614-.463.326-1.184 1.384-.871 3.485h-.003z" fill="#E3E3E3"/><path d="M30.892.34c.134 12.227.307 24.454.379 36.681.032 5.55-4.608 8.184-8.024 11.79.884.186 1.34.444 1.615.313 1.997-.963 3.697-3.91 6.034-2.415 2.385 1.524 1.468 4.686 1.367 7.19-.242 6.03-4.983 9.018-8.837 12.363.871 1.58 1.537.806 2.147.369 2.02-1.442 4.017-4.356 6.474-3.051 2.755 1.462 1.57 5.009 1.534 7.688-.049 3.573-1.432 6.777-4.017 9.182-3.21 2.99-7.378 5.25-6.213 10.837.157.754-.463 1.668-1.556 1.563-1.058-.1-1.498-1.057-1.348-1.804 1.044-5.264-2.793-7.443-5.87-10.299-1.495-1.386-2.657-3.39-3.381-5.338-1.367-3.688-2.399-8.458.137-11.098 3.044-3.169 5.38 2.46 8.895 3.067-.032-2.51-2.2-3.015-3.426-4.098-2.483-2.19-4.454-4.693-4.914-8.018-.399-2.9-1.485-6.517 1.148-8.442 2.428-1.775 4.246 1.99 6.64 2.506.157-.372.474-.988.425-1.021-6.964-4.542-8.128-11.304-7.626-19.047.623-9.617-.58-19.289.61-28.908h2.542c.079 8.569.186 17.134.216 25.703.01 3.068.166 5.877 4.868 5.897V.34h2.542v31.884c4.67-.962 4.68-3.478 4.7-6.174.064-8.569.247-17.138.384-25.71h2.555zm-.398 65.563C25.44 67.75 24.16 72.14 22.127 76.16c-2.71-5.105-5.56-8.366-8.549-9.783-.702 7.385 3.338 14.743 8.22 14.965 4.656.216 8.996-7.107 8.696-15.438zM14.762 49.261c-.192 6.836 3.156 12.7 7.075 12.847 4.242.157 7.76-6.03 7.166-12.654-4.291.646-4.634 5.28-7.29 7.831-1.928-3.188-2.744-6.719-6.95-8.024zm1.074-15.425c-1.08 4.565.767 7.678 4.448 10.057 2.493 1.612 3.948-.316 5.443-1.66 2.64-2.376 3.227-5.202 2.163-8.73-3.465 1.606-4.17 4.455-5.723 6.79-2.402-2.212-2.46-5.993-6.33-6.457z" fill="#707070"/><path d="M66.5.34C56.133 7.998 47.45 16.92 43.357 29.614c-6.957 21.576.111 44.672 18.117 58.482 1.303.998 2.582 2.033 4.109 3.24-4.405 1.44-6.79-1.334-9.268-3.488-25.07-21.808-25.145-60.691-.202-82.995 1.73-1.547 3.53-3.012 5.3-4.513H66.5z" fill="#707070"/><path d="M89.55 12.41c1.195.017 3.117-.564 3.143 1.058.046 2.979-2.737 1.866-4.314 2.117-13.571 2.15-23.573 11.712-26.072 25.11a30.877 30.877 0 0014.939 32.446c3.73 2.15 7.743 3.296 11.992 3.91 1.36.195 4.144-.64 3.612 2.097-.444 2.275-2.875 1.244-4.32 1.012-13.448-2.144-23.016-9.476-27.74-22.274-4.856-13.148-1.93-25.048 7.52-35.233 5.679-6.118 12.838-9.567 21.24-10.246v.003z" fill="#707070"/><path d="M92.533 46.745c0 1.69.114 3.394-.026 5.075-.15 1.781.907 4.2-.94 5.188-1.912 1.025-3.844-.434-5.485-1.648-6.598-4.882-6.02-15.033 1.1-18.884 3.26-1.765 5.828-2.046 5.384 3.296-.193 2.307-.033 4.65-.03 6.977l-.003-.004z" fill="#707070"/></svg>
